icons/op-arrow-left2-24.svg

<svg width="24" height="24" viewBox="0 0 24 24" fill="none" xmlns="http://www.w3.org/2000/svg">
<path d="M7.41026 11.0625L14.5604 4.375C15.1172 3.875 16.0549 3.875 16.5824 4.375C17.1392 4.90625 17.1392 5.75 16.5824 6.28125L10.4579 12L16.5824 17.7188C17.1392 18.25 17.1392 19.0938 16.5824 19.625C16.3187 19.875 15.967 20 15.5861 20C15.2051 20 14.8242 19.875 14.5604 19.625L7.41026 12.9375C7.14652 12.6875 7 12.3438 7 12C7 11.6562 7.14652 11.3125 7.41026 11.0625Z" fill="black"/>
</svg>

<svg xmlns="http://www.w3.org/2000/svg" width="24" height="24" viewBox="0 0 24 24"><path d="m7.41 11.062 7.15-6.687c.557-.5 1.495-.5 2.022 0a1.296 1.296 0 0 1 0 1.906L10.458 12l6.124 5.719a1.296 1.296 0 0 1 0 1.906c-.263.25-.615.375-.996.375s-.762-.125-1.026-.375l-7.15-6.687A1.306 1.306 0 0 1 7 12c0-.344.147-.688.41-.938Z"/></svg>
